src/containers/site/SiteRobotsScreen/asset/robots_feature_5.svg

<svg width="59" height="75" viewBox="0 0 59 75" fill="none" xmlns="http://www.w3.org/2000/svg">
<path d="M58.9979 26.7964C58.7512 12.146 46.7641 0.19959 32.0639 0.00294049C16.7964 -0.21829 4.34062 12.0723 4.34062 27.2388C4.34062 29.9428 4.73526 32.573 5.4752 35.0311L0.394253 43.2903C-0.690999 45.0602 0.591571 47.3708 2.68808 47.3708H4.38995C5.42588 47.3708 6.26448 48.2066 6.26448 49.239V59.3172C6.26448 61.677 8.18833 63.5944 10.5562 63.5944H18.7942C22.1486 63.5944 24.8864 66.3229 24.8864 69.6659V75H27.2296H48.2193H51.4998V52.0412C51.4998 48.5999 52.511 45.2322 54.4349 42.3562L54.4595 42.3071C57.222 37.7596 59.0719 32.5238 58.9979 26.7964Z" fill="url(#paint0_linear)"/>
<path d="M52 29.2653V24.7347C52 23.7061 51.2653 22.8245 50.2612 22.6286L47.5918 22.0898C46.8816 21.9429 46.2939 21.4531 46.0245 20.7918V20.7673C45.7551 20.1061 45.8041 19.3224 46.2204 18.7347L47.7388 16.4571C48.302 15.6 48.2041 14.4735 47.4694 13.7388L44.2612 10.5306C43.5265 9.79592 42.4 9.69796 41.5429 10.2612L39.2653 11.7796C38.6531 12.1959 37.8939 12.2449 37.2327 11.9755H37.2082C36.5469 11.7061 36.0327 11.1184 35.9102 10.4082L35.3714 7.73878C35.1755 6.73469 34.2939 6 33.2653 6H28.7347C27.7061 6 26.8245 6.73469 26.6286 7.73878L26.0898 10.4082C25.9429 11.1184 25.4531 11.7061 24.7918 11.9755H24.7673C24.1061 12.2449 23.3224 12.1959 22.7347 11.7796L20.4571 10.2612C19.6 9.69796 18.4735 9.79592 17.7388 10.5306L14.5306 13.7388C13.7959 14.4735 13.698 15.6 14.2612 16.4571L15.7796 18.7347C16.1959 19.3469 16.2449 20.1061 15.9755 20.7673V20.7918C15.7061 21.4531 15.1184 21.9673 14.4082 22.0898L11.7388 22.6286C10.7347 22.8245 10 23.7061 10 24.7347V29.2653C10 30.2939 10.7347 31.1755 11.7388 31.3714L14.4082 31.9102C15.1184 32.0571 15.7061 32.5469 15.9755 33.2082V33.2327C16.2449 33.8939 16.1959 34.6776 15.7796 35.2653L14.2612 37.5429C13.698 38.4 13.7959 39.5265 14.5306 40.2612L17.7388 43.4694C18.4735 44.2041 19.6 44.302 20.4571 43.7388L22.7347 42.2204C23.3469 41.8041 24.1061 41.7551 24.7673 42.0245H24.7918C25.4531 42.2939 25.9673 42.8816 26.0898 43.5918L26.6286 46.2612C26.8245 47.2653 27.7061 48 28.7347 48H33.2653C34.2939 48 35.1755 47.2653 35.3714 46.2612L35.9102 43.5918C36.0571 42.8816 36.5469 42.2939 37.2082 42.0245H37.2327C37.8939 41.7551 38.6776 41.8041 39.2653 42.2204L41.5429 43.7388C42.4 44.302 43.5265 44.2041 44.2612 43.4694L47.4694 40.2612C48.2041 39.5265 48.302 38.4 47.7388 37.5429L46.2204 35.2653C45.8041 34.6531 45.7551 33.8939 46.0245 33.2327V33.2082C46.2939 32.5469 46.8816 32.0327 47.5918 31.9102L50.2612 31.3714C51.2653 31.1755 52 30.2939 52 29.2653Z" fill="white"/>
<path d="M33.2888 36C32.6265 36 31.9888 35.5909 31.7189 34.9412L27.4755 24.1845L23.232 34.9412C22.8886 35.7834 21.932 36.2166 21.0735 35.8797C20.215 35.5428 19.7735 34.6043 20.1169 33.762L25.9302 19.0588C26.1754 18.4332 26.7887 18 27.5 18C28.1868 18 28.8 18.4091 29.0698 19.0588L34.8831 33.762C35.2265 34.6043 34.785 35.5668 33.9265 35.8797C33.6812 35.9759 33.485 36 33.2888 36Z" fill="url(#paint1_linear)"/>
<path d="M31.3135 33H22.6859C21.7438 33 21 32.3162 21 31.5C21 30.6618 21.7686 30 22.6859 30H31.3135C32.2557 30 32.9994 30.6838 32.9994 31.5C33.0242 32.3382 32.2557 33 31.3135 33Z" fill="url(#paint2_linear)"/>
<path d="M39 36C37.8824 36 37 35.2285 37 34.3077V26.6923C37 25.7466 37.9118 25 39 25C40.0882 25 41 25.7715 41 26.6923V34.3077C41 35.2534 40.0882 36 39 36Z" fill="url(#paint3_linear)"/>
<path d="M39 24C37.8824 24 37 23.0882 37 22C37 20.8824 37.9118 20 39 20C40.0882 20 41 20.9118 41 22C41 23.1176 40.0882 24 39 24Z" fill="url(#paint4_linear)"/>
<defs>
<linearGradient id="paint0_linear" x1="0.00462247" y1="74.9817" x2="58.9929" y2="74.9817" gradientUnits="userSpaceOnUse">
<stop stop-color="#FFB300"/>
<stop offset="1" stop-color="#FF8E37"/>
</linearGradient>
<linearGradient id="paint1_linear" x1="20.0093" y1="35.9781" x2="34.9602" y2="35.9781" gradientUnits="userSpaceOnUse">
<stop stop-color="#5C8BFC"/>
<stop offset="1" stop-color="#84B0FF"/>
</linearGradient>
<linearGradient id="paint2_linear" x1="21.0059" y1="33.0049" x2="33.0123" y2="33.0049" gradientUnits="userSpaceOnUse">
<stop stop-color="#5C8BFC"/>
<stop offset="1" stop-color="#84B0FF"/>
</linearGradient>
<linearGradient id="paint3_linear" x1="36.9902" y1="36.0175" x2="41.0007" y2="36.0175" gradientUnits="userSpaceOnUse">
<stop stop-color="#5C8BFC"/>
<stop offset="1" stop-color="#84B0FF"/>
</linearGradient>
<linearGradient id="paint4_linear" x1="36.9902" y1="24.007" x2="41.0007" y2="24.007" gradientUnits="userSpaceOnUse">
<stop stop-color="#5C8BFC"/>
<stop offset="1" stop-color="#84B0FF"/>
</linearGradient>
</defs>
</svg>

<svg width="59" height="75" fill="none" xmlns="http://www.w3.org/2000/svg"><path d="M58.998 26.796C58.75 12.146 46.764.2 32.064.003 16.796-.218 4.34 12.073 4.34 27.239c0 2.704.394 5.334 1.134 7.792l-5.08 8.26c-1.086 1.77.197 4.08 2.293 4.08H4.39a1.87 1.87 0 011.874 1.868v10.078c0 2.36 1.924 4.277 4.292 4.277h8.238c3.355 0 6.092 2.729 6.092 6.072V75H51.5V52.041c0-3.441 1.011-6.809 2.935-9.685l.024-.049c2.763-4.547 4.613-9.783 4.539-15.51z" fill="url(#paint0_linear)"/><path d="M52 29.265v-4.53a2.15 2.15 0 00-1.739-2.106l-2.67-.54a2.165 2.165 0 01-1.566-1.297v-.025c-.27-.66-.22-1.445.195-2.032l1.519-2.278a2.152 2.152 0 00-.27-2.718l-3.208-3.208a2.152 2.152 0 00-2.718-.27l-2.278 1.519a2.151 2.151 0 01-2.032.196h-.025c-.661-.27-1.175-.858-1.298-1.568l-.539-2.67A2.15 2.15 0 0033.265 6h-4.53a2.15 2.15 0 00-2.106 1.739l-.54 2.67a2.165 2.165 0 01-1.297 1.566h-.025c-.66.27-1.445.22-2.032-.195l-2.278-1.519a2.152 2.152 0 00-2.718.27l-3.208 3.208a2.152 2.152 0 00-.27 2.718l1.519 2.278c.416.612.465 1.371.196 2.032v.025c-.27.661-.858 1.175-1.568 1.298l-2.67.539A2.15 2.15 0 0010 24.735v4.53a2.15 2.15 0 001.739 2.106l2.67.54c.71.146 1.297.636 1.566 1.297v.025c.27.66.22 1.445-.195 2.032l-1.519 2.278a2.152 2.152 0 00.27 2.718l3.208 3.208a2.152 2.152 0 002.718.27l2.278-1.519a2.151 2.151 0 012.032-.195h.025c.661.269 1.175.857 1.298 1.567l.539 2.67A2.15 2.15 0 0028.735 48h4.53a2.15 2.15 0 002.106-1.739l.54-2.67a2.165 2.165 0 011.297-1.566h.025c.66-.27 1.445-.22 2.032.195l2.278 1.519a2.152 2.152 0 002.718-.27l3.208-3.208a2.152 2.152 0 00.27-2.718l-1.519-2.278a2.151 2.151 0 01-.195-2.032v-.025c.269-.661.857-1.175 1.567-1.298l2.67-.539A2.15 2.15 0 0052 29.265z" fill="#fff"/><path d="M33.289 36c-.663 0-1.3-.41-1.57-1.059l-4.244-10.757-4.243 10.757a1.676 1.676 0 01-2.159.939c-.858-.337-1.3-1.276-.956-2.118l5.813-14.703A1.68 1.68 0 0127.5 18c.687 0 1.3.41 1.57 1.059l5.813 14.703c.343.842-.098 1.805-.957 2.118a1.65 1.65 0 01-.637.12z" fill="url(#paint1_linear)"/><path d="M31.314 33h-8.628C21.744 33 21 32.316 21 31.5c0-.838.769-1.5 1.686-1.5h8.628c.942 0 1.685.684 1.685 1.5.025.838-.743 1.5-1.686 1.5z" fill="url(#paint2_linear)"/><path d="M39 36c-1.118 0-2-.772-2-1.692v-7.616c0-.945.912-1.692 2-1.692s2 .771 2 1.692v7.616c0 .945-.912 1.692-2 1.692z" fill="url(#paint3_linear)"/><path d="M39 24c-1.118 0-2-.912-2-2 0-1.118.912-2 2-2s2 .912 2 2c0 1.118-.912 2-2 2z" fill="url(#paint4_linear)"/><defs><linearGradient id="paint0_linear" x1=".005" y1="74.982" x2="58.993" y2="74.982" gradientUnits="userSpaceOnUse"><stop stop-color="#FFB300"/><stop offset="1" stop-color="#FF8E37"/></linearGradient><linearGradient id="paint1_linear" x1="20.009" y1="35.978" x2="34.96" y2="35.978" gradientUnits="userSpaceOnUse"><stop stop-color="#5C8BFC"/><stop offset="1" stop-color="#84B0FF"/></linearGradient><linearGradient id="paint2_linear" x1="21.006" y1="33.005" x2="33.012" y2="33.005" gradientUnits="userSpaceOnUse"><stop stop-color="#5C8BFC"/><stop offset="1" stop-color="#84B0FF"/></linearGradient><linearGradient id="paint3_linear" x1="36.99" y1="36.017" x2="41.001" y2="36.017" gradientUnits="userSpaceOnUse"><stop stop-color="#5C8BFC"/><stop offset="1" stop-color="#84B0FF"/></linearGradient><linearGradient id="paint4_linear" x1="36.99" y1="24.007" x2="41.001" y2="24.007" gradientUnits="userSpaceOnUse"><stop stop-color="#5C8BFC"/><stop offset="1" stop-color="#84B0FF"/></linearGradient></defs></svg>
